components/2.0/icon/icons/icon-clock-fill-22px.svg

<svg width="22" height="22" xmlns="http://www.w3.org/2000/svg"><path d="M11 3c-4.4 0-8 3.6-8 8s3.6 8 8 8 8-3.6 8-8-3.6-8-8-8zm2.5 11.5L10 12V5h1v6.5l3 2-.5 1z" fill="#3D4752" fill-rule="evenodd"/></svg>

<?xml version="1.0" encoding="UTF-8" standalone="no"?>
<svg width="22px" height="22px" viewBox="0 0 22 22" version="1.1" xmlns="http://www.w3.org/2000/svg" xmlns:xlink="http://www.w3.org/1999/xlink" xmlns:sketch="http://www.bohemiancoding.com/sketch/ns">
    <!-- Generator: Sketch 3.4.4 (17249) - http://www.bohemiancoding.com/sketch -->
    <title>icon-clock-fill-22px</title>
    <desc>Created with Sketch.</desc>
    <defs></defs>
    <g id="22px" stroke="none" stroke-width="1" fill="none" fill-rule="evenodd" sketch:type="MSPage">
        <g id="icon-clock-fill-22px" sketch:type="MSArtboardGroup" fill="#3D4752">
            <path d="M11,3 C6.6,3 3,6.6 3,11 C3,15.4 6.6,19 11,19 C15.4,19 19,15.4 19,11 C19,6.6 15.4,3 11,3 L11,3 L11,3 Z M13.5,14.5 L10,12 L10,5 L11,5 L11,11.5 L14,13.5 L13.5,14.5 L13.5,14.5 L13.5,14.5 Z" id="Imported-Layers" sketch:type="MSShapeGroup"></path>
        </g>
    </g>
</svg>
